Hatter-kde/actions/24/kstars_mw.svg

<svg xmlns="http://www.w3.org/2000/svg" viewBox="0 0 24 24">
  <defs id="defs3051">
    <style type="text/css" id="current-color-scheme">
      .ColorScheme-Text {
        color:#363636;
      }
      </style>
  </defs><g transform="translate(1,1)">
 <path 
     style="fill:currentColor;fill-opacity:1;stroke:none" 
     d="M 13.931641 3 C 12.836484 3.027 11.833639 2.9583531 10.703125 3.2519531 L 10.703125 3.25 C 8.80162 4.0465 7.6923813 5.8106563 7.1933594 7.7226562 C 7.1534984 7.8812562 6.9335938 8.5118094 6.9335938 9.2871094 L 6.9335938 12.154297 C 6.8754468 13.711197 5.7694444 14.663484 4.6191406 15.521484 C 4.0834089 15.900084 3.5249206 16.229641 3 16.619141 L 3.0039062 19 C 5.9728071 18.99 7.2843621 18.979375 9.2773438 18.984375 C 10.881628 16.521975 11.947143 14.792522 11.970703 12.232422 L 11.970703 9.2890625 C 12.040483 8.6647625 12.274194 8.0073187 12.78125 7.9492188 C 13.668538 7.9012187 14.397508 8.1539844 14.875 8.4589844 C 15.140692 8.6305844 15.726147 9.0058594 16.646484 9.0058594 L 18.013672 9.0058594 L 19 9.0058594 L 19 3.9941406 L 17.859375 3.9941406 C 17.054069 4.0591406 16.422819 3.5170531 15.685547 3.2519531 C 15.317995 3.1609531 14.688199 3 13.931641 3 z "
     class="ColorScheme-Text"
     />
</g></svg>

<?xml version="1.0" encoding="UTF-8"?>
<svg viewBox="0 0 24 24" xmlns="http://www.w3.org/2000/svg">
 <defs id="defs3051">
  <style id="current-color-scheme" type="text/css">.ColorScheme-Text {
        color:#363636;
      }</style>
 </defs>
 <g transform="translate(1,1)">
  <path class="ColorScheme-Text" d="m13.932 3c-1.0952 0.027-2.098-0.041647-3.2285 0.25195v-0.0019531c-1.9015 0.7965-3.0107 2.5607-3.5098 4.4727-0.039861 0.1586-0.25977 0.78915-0.25977 1.5645v2.8672c-0.058147 1.5569-1.1641 2.5092-2.3145 3.3672-0.53573 0.3786-1.0942 0.70816-1.6191 1.0977l0.0039062 2.3809c2.9689-0.01 4.2805-0.020625 6.2734-0.015625 1.6043-2.4624 2.6698-4.1919 2.6934-6.752v-2.9434c0.06978-0.6243 0.30349-1.2817 0.81055-1.3398 0.88729-0.048 1.6163 0.20477 2.0938 0.50977 0.26569 0.1716 0.85115 0.54688 1.7715 0.54688h1.3672 0.98633v-5.0117h-1.1406c-0.80531 0.065-1.4366-0.47709-2.1738-0.74219-0.36755-0.091-0.99735-0.25195-1.7539-0.25195z" fill="currentColor"/>
 </g>
</svg>
